src/OnboardingSPA/static/icons/politics-white.svg

<svg fill="none" height="13" viewBox="0 0 17 13" width="17" xmlns="http://www.w3.org/2000/svg"><path clip-rule="evenodd" d="m3.04194 8.05075-1.97944-.41643h-.53125c-.140896 0-.276022-.05568-.37565-.15479-.0996291-.0991-.1556-.23352-.1556-.37368v-3.17081c0-.14016.0559709-.27458.1556-.37368.099628-.09911.234754-.15478.37565-.15478h.53125l13.8125-2.90658h2.125v10.0409h-2.125l-4.0949-.86141.0276.00846c-.2897.94945-.92701 1.75635-1.78585 2.26095-.85883.5048-1.87675.6707-2.85259.465s-1.83863-.768-2.41786-1.5759c-.57923-.8078-.83278-1.80243-.71053-2.78725zm1.56931.33083c-.03415.56889.13812 1.13108.48548 1.58428.34735.45324.8467.76734 1.40721.88524.56052.1179 1.14494.0317 1.64699-.2429.50203-.2745.88831-.71923 1.08857-1.25319zm-3.0175-3.46676 13.44805-2.82942h.3644v6.87009h-.3644l-13.44805-2.82942z" fill="#fff" fill-rule="evenodd"/></svg>

<svg width="17" height="13" viewBox="0 0 17 13" fill="none" xmlns="http://www.w3.org/2000/svg">
<path fill-rule="evenodd" clip-rule="evenodd" d="M3.04194 8.05075L1.0625 7.63432H0.53125C0.390354 7.63432 0.255228 7.57864 0.1556 7.47953C0.0559709 7.38043 0 7.24601 0 7.10585V3.93504C0 3.79488 0.0559709 3.66046 0.1556 3.56136C0.255228 3.46225 0.390354 3.40658 0.53125 3.40658H1.0625L14.875 0.5H17V10.5409H14.875L10.7801 9.67949L10.8077 9.68795C10.518 10.6374 9.88069 11.4443 9.02185 11.9489C8.16302 12.4537 7.1451 12.6196 6.16926 12.4139C5.19342 12.2082 4.33063 11.6459 3.7514 10.838C3.17217 10.0302 2.91862 9.03557 3.04087 8.05075H3.04194ZM4.61125 8.38158C4.5771 8.95047 4.74937 9.51266 5.09673 9.96586C5.44408 10.4191 5.94343 10.7332 6.50394 10.8511C7.06446 10.969 7.64888 10.8828 8.15093 10.6082C8.65296 10.3337 9.03924 9.88897 9.2395 9.35501L4.61125 8.38158ZM1.59375 4.91482L15.0418 2.0854H15.4062V8.95549H15.0418L1.59375 6.12607V4.91482Z" fill="white"/>
</svg>
